X:1
T: John C. Douglas
C:
R:Reel
Q: 232
K:A
M:4/4
L:1/8
e2|a3a f2 e2|A2 c2 c2 e2|aa aa f2 e2|d2 B2 B2 d2|g3g f2 e2|B2 d2 d2 e2|gg gg a2 g2|f2 e2 c2 e2|
a3a f2 e2|A2 c2 c2 B2|AA AA e2 A2|g2 f2 f2 g2|a3a g2 f2|e2 d2 B2 A2|GG GG c2 B2|A4 A4|
F3F d2 F2|EE EE c2 A2|G2 e2 d2 B2|AA AA f2 e2|F3F d2 F2|EE EE c2 A2|B3c ^d2 B2|e8|
F3F d2 F2|EE EE c2 A2|G2 e2 d2 B2|AA AA f2 e2|e2 a2 g2 f2|e3d B2 G2|EE EE c2 B2|A4 A2||
